modules/feathericon/icons/download.svg

<?xml version="1.0" encoding="UTF-8"?>
<svg width="24px" height="24px" viewBox="0 0 24 24" version="1.1" xmlns="http://www.w3.org/2000/svg" xmlns:xlink="http://www.w3.org/1999/xlink">
    <!-- Generator: sketchtool 52.2 (67145) - http://www.bohemiancoding.com/sketch -->
    <title>download</title>
    <desc>Created with sketchtool.</desc>
    <g id="web-app" stroke="none" stroke-width="1" fill="none" fill-rule="evenodd">
        <g id="download" fill="#000000">
            <path d="M5,19 L19,19 C19.5522847,19 20,19.4477153 20,20 C20,20.5522847 19.5522847,21 19,21 L5,21 C4.44771525,21 4,20.5522847 4,20 C4,19.4477153 4.44771525,19 5,19 Z M13,13.1752814 L16.2426407,9.93264074 L17.6568542,11.3468543 L12,17.0037086 L6.34314575,11.3468543 L7.75735931,9.93264074 L11,13.1752814 L11,2 L13,2 L13,13.1752814 Z" id="Shape"></path>
        </g>
    </g>
</svg>

<svg width="24" height="24" viewBox="0 0 24 24" xmlns="http://www.w3.org/2000/svg"><path d="M5 19h14a1 1 0 0 1 0 2H5a1 1 0 0 1 0-2zm8-5.825l3.243-3.242 1.414 1.414L12 17.004l-5.657-5.657 1.414-1.414L11 13.175V2h2v11.175z" fill="#000" fill-rule="evenodd"/></svg>
